build/svg/cmd/sc_freeline.svg

<?xml version="1.0" encoding="UTF-8" standalone="no"?>
<svg
   xmlns:dc="http://purl.org/dc/elements/1.1/"
   xmlns:cc="http://creativecommons.org/ns#"
   xmlns:rdf="http://www.w3.org/1999/02/22-rdf-syntax-ns#"
   xmlns:svg="http://www.w3.org/2000/svg"
   xmlns="http://www.w3.org/2000/svg"
   xmlns:sodipodi="http://sodipodi.sourceforge.net/DTD/sodipodi-0.dtd"
   xmlns:inkscape="http://www.inkscape.org/namespaces/inkscape"
   viewBox="0 0 16 16"
   version="1.1"
   id="svg4"
   sodipodi:docname="sc_freeline.svg"
   inkscape:version="0.92.4 (5da689c313, 2019-01-14)"
   inkscape:export-filename="/home/jupiter007/Libreoffice yaru theme fullcolor/build/cmd/sc_freeline.png"
   inkscape:export-xdpi="95"
   inkscape:export-ydpi="95"><metadata
   id="metadata10">
  <rdf:RDF>
    <cc:Work
       rdf:about="">
      <dc:format>image/svg+xml</dc:format>
      <dc:type
         rdf:resource="http://purl.org/dc/dcmitype/StillImage" />
    </cc:Work>
  </rdf:RDF>
</metadata>
<defs
   id="defs8" />
<sodipodi:namedview
   pagecolor="#ffffff"
   bordercolor="#666666"
   borderopacity="1"
   objecttolerance="10"
   gridtolerance="10"
   guidetolerance="10"
   inkscape:pageopacity="0"
   inkscape:pageshadow="2"
   inkscape:window-width="1920"
   inkscape:window-height="1011"
   id="namedview6"
   showgrid="true"
   inkscape:zoom="41.7193"
   inkscape:cx="4.582248"
   inkscape:cy="7.6389721"
   inkscape:window-x="0"
   inkscape:window-y="32"
   inkscape:window-maximized="1"
   inkscape:current-layer="svg4">
  <inkscape:grid
     type="xygrid"
     id="grid817" />
</sodipodi:namedview>
/&gt;<path
   sodipodi:nodetypes="cccccccccccccccc"
   style="fill:#000000;stroke:#000000;opacity:0.6;stroke-width:2;stroke-miterlimit:4;stroke-dasharray:none;stroke-linejoin:round"
   inkscape:connector-curvature="0"
   id="path831"
   d="M 12.125,9 C 11.92876,9.001 11.39351,9.046 10.5625,9.5625 10.30271,9.7241 10.1092,9.907 9.8125,10.125 9.65412,10.2414 9.08632,10.6193 8.875,10.75 8.25574,11.1332 8.03434,11.2299 7.5,11.5 6.98287,11.7615 6.44076,11.9987 6.0625,12.1875 4.47033,12.9823 2,13 2,13 v 1 c 0,0 2.49556,0.032 4.3125,-0.875 0.24102,-0.1203 0.66892,-0.3176 1.0625,-0.5 0,0 1.85276,0.76285 3.25,1.15625 1.14395,0.412 2.03313,0.14865 2.46875,-0.15625 C 13.72129,13.1478 14.02192,12.28855 14,11.46875 13.996,11.18085 13.9499,10.9437 13.84375,10.625 13.73757,10.3064 13.57792,9.9489 13.34375,9.6875 12.98236,9.2643 12.80101,9.0781 12.125,9 Z" />
<path
   d="M 12.125,9 C 11.92876,9.001 11.39351,9.046 10.5625,9.5625 10.30271,9.7241 10.1092,9.907 9.8125,10.125 9.65412,10.2414 9.08632,10.6193 8.875,10.75 8.25574,11.1332 8.03434,11.2299 7.5,11.5 6.98287,11.7615 6.44076,11.9987 6.0625,12.1875 4.47033,12.9823 2,13 2,13 v 1 c 0,0 2.49556,0.032 4.3125,-0.875 0.24102,-0.1203 0.66892,-0.3176 1.0625,-0.5 0,0 1.85276,0.76285 3.25,1.15625 1.14395,0.412 2.03313,0.14865 2.46875,-0.15625 C 13.72129,13.1478 14.02192,12.28855 14,11.46875 13.996,11.18085 13.9499,10.9437 13.84375,10.625 13.73757,10.3064 13.57792,9.9489 13.34375,9.6875 12.98236,9.2643 12.80101,9.0781 12.125,9 Z"
   id="path2"
   inkscape:connector-curvature="0"
   style="fill:#ffffff"
   sodipodi:nodetypes="cccccccccccccccc" />
<g
   style="display:inline;stroke-width:27.20000267;enable-background:new"
   transform="matrix(0.03109233,0.03109234,-0.03372203,0.03372202,-5.8911169,-22.902024)"
   id="g1151">
  <path
     style="fill:#fec589;fill-opacity:1;stroke:none;stroke-width:27.20000267"
     d="m 688.00003,319.35584 -32,81.13762 -31.99999,-81.13762 v -11.06422 h 63.99999 z"
     id="path1145"
     inkscape:connector-curvature="0" />
  <path
     style="color:#000000;display:inline;overflow:visible;visibility:visible;fill:#5d5d5d;fill-opacity:1;fill-rule:nonzero;stroke:none;stroke-width:27.20000267;marker:none;enable-background:accumulate"
     d="m 645.81253,374.67694 10.1875,25.81651 10.1875,-25.81651 c 0.0102,0.17481 -20.375,0 -20.375,0 z"
     id="path1147"
     inkscape:connector-curvature="0"
     sodipodi:nodetypes="cccc" />
  <path
     style="fill:#2f5fdd;fill-opacity:1;stroke:none;stroke-width:27.20000267"
     d="m 624.00004,319.35583 c 0,0 65.02041,1.58617 63.99999,0 V 127.90048 h -63.99999 z"
     id="path1149"
     inkscape:connector-curvature="0"
     sodipodi:nodetypes="ccccc" />
</g>
</svg>

<svg xmlns="http://www.w3.org/2000/svg" viewBox="0 0 16 16">/&gt;<path d="M12.125 9c-.196.001-.731.046-1.563.563-.26.161-.453.344-.75.562a24.2 24.2 0 01-.937.625c-.62.383-.84.48-1.375.75-.517.261-1.06.499-1.438.688C4.47 12.982 2 13 2 13v1s2.496.032 4.313-.875c.24-.12.668-.318 1.062-.5 0 0 1.853.763 3.25 1.156 1.144.412 2.033.149 2.469-.156.627-.477.928-1.336.906-2.156a2.601 2.601 0 00-.156-.844c-.106-.319-.266-.676-.5-.938-.362-.423-.543-.609-1.219-.687z" stroke="#000" opacity=".6" stroke-width="2" stroke-linejoin="round"/><path d="M12.125 9c-.196.001-.731.046-1.563.563-.26.161-.453.344-.75.562a24.2 24.2 0 01-.937.625c-.62.383-.84.48-1.375.75-.517.261-1.06.499-1.438.688C4.47 12.982 2 13 2 13v1s2.496.032 4.313-.875c.24-.12.668-.318 1.062-.5 0 0 1.853.763 3.25 1.156 1.144.412 2.033.149 2.469-.156.627-.477.928-1.336.906-2.156a2.601 2.601 0 00-.156-.844c-.106-.319-.266-.676-.5-.938-.362-.423-.543-.609-1.219-.687z" fill="#fff"/><g stroke-width="27.2"><path d="M4.731 9.259L1 11l1.741-3.731.373-.373 1.99 1.99z" fill="#fec589"/><path style="marker:none" d="M1.554 9.813L1 11l1.187-.554c-.005.006-.633-.633-.633-.633z" color="#000" overflow="visible" fill="#5d5d5d"/><path d="M2.741 7.269s1.968 2.075 1.99 1.99l6.456-6.456-1.99-1.99z" fill="#2f5fdd"/></g></svg>
